twotone/svg/ballot.svg

<?xml version="1.0" encoding="utf-8"?>
<!-- Generator: Adobe Illustrator 19.1.0, SVG Export Plug-In . SVG Version: 6.00 Build 0)  -->
<svg version="1.1" xmlns="http://www.w3.org/2000/svg" xmlns:xlink="http://www.w3.org/1999/xlink" x="0px" y="0px" width="24px"
	 height="24px" viewBox="0 0 24 24" enable-background="new 0 0 24 24" xml:space="preserve">
<g id="Bounding_Boxes">
	<g id="ui_x5F_spec_x5F_header_copy_3" display="none">
	</g>
	<path fill="none" d="M0,0h24v24H0V0z"/>
</g>
<g id="Duotone" fill="currentColor">
	<g id="ui_x5F_spec_x5F_header_copy_2" display="none">
	</g>
	<g>
		<rect x="7" y="14" opacity="0.3" width="3" height="3"/>
		<rect x="7" y="7" opacity="0.3" width="3" height="3"/>
		<path opacity="0.3" d="M5,19h14V5H5V19z M13,7.5h5v2h-5V7.5z M13,14.5h5v2h-5V14.5z M6,6h5v5H6V6z M6,13h5v5H6V13z"/>
		<rect x="13" y="7.5" width="5" height="2"/>
		<rect x="13" y="14.5" width="5" height="2"/>
		<path d="M19,3H5C3.9,3,3,3.9,3,5v14c0,1.1,0.9,2,2,2h14c1.1,0,2-0.9,2-2V5C21,3.9,20.1,3,19,3z M19,19H5V5h14V19z"/>
		<path d="M11,6H6v5h5V6z M10,10H7V7h3V10z"/>
		<path d="M11,13H6v5h5V13z M10,17H7v-3h3V17z"/>
	</g>
</g>
</svg>

<svg xmlns="http://www.w3.org/2000/svg" width="24" height="24"><path fill="none" d="M0 0h24v24H0V0z"/><g fill="currentColor"><path opacity=".3" d="M7 14h3v3H7zM7 7h3v3H7z"/><path opacity=".3" d="M5 19h14V5H5v14zm8-11.5h5v2h-5v-2zm0 7h5v2h-5v-2zM6 6h5v5H6V6zm0 7h5v5H6v-5z"/><path d="M13 7.5h5v2h-5zM13 14.5h5v2h-5z"/><path d="M19 3H5c-1.1 0-2 .9-2 2v14c0 1.1.9 2 2 2h14c1.1 0 2-.9 2-2V5c0-1.1-.9-2-2-2zm0 16H5V5h14v14z"/><path d="M11 6H6v5h5V6zm-1 4H7V7h3v3zM11 13H6v5h5v-5zm-1 4H7v-3h3v3z"/></g></svg>
